; generated by PrusaSlicer 2.2.0+win64 on 2022-03-09 at 12:55:38 UTC

; 

; external perimeters extrusion width = 0.45mm
; perimeters extrusion width = 0.45mm
; infill extrusion width = 0.45mm
; solid infill extrusion width = 0.45mm
; top infill extrusion width = 0.40mm
; first layer extrusion width = 0.42mm

M73 P0 R28
M73 Q0 S29
M201 X1000 Y1000 Z200 E5000 ; sets maximum accelerations, mm/sec^2
M203 X200 Y200 Z12 E120 ; sets maximum feedrates, mm/sec
M204 P1250 R1250 T1250 ; sets acceleration (P, T) and retract acceleration (R), mm/sec^2
M205 X8.00 Y8.00 Z0.40 E4.50 ; sets the jerk limits, mm/sec
M205 S0 T0 ; sets the minimum extruding and travel feed rate, mm/sec
M107
M862.3 P "MK3S" ; printer model check
M862.1 P0.4 ; nozzle diameter check
M115 U3.10.1 ; tell printer latest fw version
G90 ; use absolute coordinates
M83 ; extruder relative mode
M104 S215 ; set extruder temp
M140 S60 ; set bed temp
M190 S60 ; wait for bed temp
M109 S215 ; wait for extruder temp
G28 W ; home all without mesh bed level
G80 ; mesh bed leveling
G1 Y-3.0 F1000.0 ; go outside print area
G92 E0.0
G1 X60.0 E9.0 F1000.0 ; intro line
M73 Q0 S29
M73 P0 R28
G1 X100.0 E12.5 F1000.0 ; intro line
G92 E0.0
M221 S95

; Don't change E values below. Excessive value can damage the printer.
M907 E430 ; set extruder motor current
G21 ; set units to millimeters
G90 ; use absolute coordinates
M83 ; use relative distances for extrusion
M900 K0.05 ; Filament gcode LA 1.5
M900 K30 ; Filament gcode LA 1.0
;BEFORE_LAYER_CHANGE
G92 E0.0
;0.2


G1 E-0.80000 F2100.00000
G1 Z0.400 F10800.000
;AFTER_LAYER_CHANGE
;0.2
G1 X91.326 Y100.414
G1 Z0.200
G1 E0.80000 F2100.00000
M204 S1000
G1 F1200.000
G1 X92.297 Y99.782 E0.03632
G1 X93.182 Y99.412 E0.03007
G1 X94.351 Y99.159 E0.03750
G1 X155.065 Y99.123 E1.90365
G1 X156.288 Y99.266 E0.03860
G1 X157.388 Y99.630 E0.03632
G1 X158.236 Y100.094 E0.03030
G1 X159.160 Y100.848 E0.03738
G1 X159.698 Y101.469 E0.02578
G1 X164.863 Y108.699 E0.27859
G1 X165.473 Y109.855 E0.04098
G1 X165.792 Y110.996 E0.03715
G1 X165.875 Y112.197 E0.03775
G1 X165.711 Y113.393 E0.03786
G1 X165.327 Y114.482 E0.03620
G1 X164.848 Y115.322 E0.03031
G1 X164.073 Y116.237 E0.03761
G1 X163.160 Y116.956 E0.03644
G1 X162.091 Y117.493 E0.03751
G1 X160.987 Y117.793 E0.03584
G1 X160.074 Y117.877 E0.02876
G1 X100.058 Y117.877 E1.88177
G1 X98.954 Y117.783 E0.03473
G1 X98.045 Y117.542 E0.02947
G1 X97.009 Y117.059 E0.03584
G1 X96.084 Y116.381 E0.03596
G1 X95.443 Y115.709 E0.02912
G1 X89.997 Y108.082 E0.29383
G1 X89.448 Y106.922 E0.04024
G1 X89.143 Y105.468 E0.04658
G1 X89.170 Y104.272 E0.03750
G1 X89.367 Y103.330 E0.03019
G1 X89.803 Y102.257 E0.03632
G1 X90.469 Y101.259 E0.03763
G1 X91.283 Y100.456 E0.03586
; printing object Axle_5.stl id:4 copy 0
G1 F8640.000
G1 X92.297 Y99.782 E-0.28104
G1 X93.182 Y99.412 E-0.22142
G1 X94.272 Y99.176 E-0.25754
G1 E-0.04000 F2100.00000
G1 Z0.600 F10800.000
G1 X93.315 Y102.877
G1 Z0.200
G1 E0.80000 F2100.00000
G1 F1200.000
G1 X93.618 Y102.668 E0.01155
G1 X93.962 Y102.495 E0.01206
G1 X94.312 Y102.377 E0.01158
G1 X94.673 Y102.309 E0.01152
G1 X95.064 Y102.290 E0.01227
G1 X95.430 Y102.322 E0.01154
G1 X95.790 Y102.406 E0.01159
G1 X96.143 Y102.540 E0.01183
G1 X96.307 Y102.624 E0.00577
G1 X96.756 Y102.933 E0.01710
G1 X97.144 Y103.338 E0.01758
G1 X97.357 Y103.658 E0.01205
G1 X97.580 Y104.161 E0.01726
G1 X97.674 Y104.543 E0.01232
G1 X97.711 Y105.093 E0.01730
G1 X97.671 Y105.476 E0.01206
G1 X97.635 Y105.649 E0.00555
G1 X97.586 Y105.820 E0.00555
G1 X97.440 Y106.186 E0.01237
G1 X97.144 Y106.662 E0.01758
G1 X96.764 Y107.060 E0.01726
G1 X96.455 Y107.289 E0.01205
G1 X96.303 Y107.380 E0.00555
G1 X96.145 Y107.459 E0.00555
G1 X95.785 Y107.596 E0.01205
G1 X95.421 Y107.679 E0.01173
G1 X95.038 Y107.712 E0.01205
G1 X94.684 Y107.694 E0.01110
G1 X94.298 Y107.619 E0.01232
G1 X93.774 Y107.418 E0.01761
G1 X93.302 Y107.114 E0.01760
G1 X92.911 Y106.727 E0.01726
G1 X92.600 Y106.262 E0.01754
G1 X92.517 Y106.087 E0.00608
G1 X92.392 Y105.740 E0.01155
G1 X92.296 Y105.197 E0.01728
G1 X92.296 Y104.803 E0.01237
G1 X92.392 Y104.262 E0.01723
G1 X92.526 Y103.894 E0.01226
G1 X92.796 Y103.421 E0.01709
G1 X92.904 Y103.281 E0.00555
G1 X93.269 Y102.915 E0.01619
G1 X93.025 Y102.628 F10800.000
G1 F1200.000
G1 X93.426 Y102.343 E0.01542
G1 X93.810 Y102.149 E0.01348
G1 X94.005 Y102.075 E0.00656
G1 X94.223 Y102.011 E0.00711
G1 X94.628 Y101.933 E0.01294
G1 X95.071 Y101.912 E0.01390
G1 X95.483 Y101.948 E0.01295
G1 X95.688 Y101.988 E0.00656
G1 X95.907 Y102.047 E0.00711
G1 X96.296 Y102.195 E0.01305
G1 X96.495 Y102.296 E0.00700
G1 X96.846 Y102.521 E0.01307
G1 X97.007 Y102.650 E0.00646
G1 X97.316 Y102.954 E0.01359
G1 X97.447 Y103.113 E0.00646
G1 X97.685 Y103.471 E0.01348
G1 X97.872 Y103.858 E0.01348
G1 X97.942 Y104.052 E0.00646
G1 X98.045 Y104.472 E0.01358
G1 X98.075 Y104.694 E0.00700
G1 X98.089 Y105.106 E0.01296
G1 X98.044 Y105.534 E0.01348
G1 X98.001 Y105.739 E0.00657
G1 X97.944 Y105.941 E0.00657
G1 X97.783 Y106.344 E0.01359
G1 X97.687 Y106.526 E0.00646
G1 X97.447 Y106.887 E0.01359
G1 X97.316 Y107.046 E0.00646
G1 X97.009 Y107.347 E0.01348
G1 X96.664 Y107.604 E0.01348
G1 X96.484 Y107.711 E0.00657
G1 X96.297 Y107.805 E0.00657
G1 X95.895 Y107.957 E0.01348
G1 X95.479 Y108.052 E0.01337
G1 X95.051 Y108.089 E0.01348
G1 X94.632 Y108.068 E0.01314
G1 X94.207 Y107.986 E0.01358
G1 X93.994 Y107.920 E0.00700
G1 X93.610 Y107.759 E0.01307
G1 X93.429 Y107.660 E0.00646
G1 X93.072 Y107.413 E0.01359
G1 X92.915 Y107.279 E0.00646
G1 X92.619 Y106.968 E0.01348
G1 X92.369 Y106.618 E0.01348
G1 X92.265 Y106.436 E0.00656
G1 X92.168 Y106.232 E0.00711
G1 X92.029 Y105.843 E0.01296
G1 X91.940 Y105.422 E0.01348
G1 X91.919 Y105.217 E0.00646
G1 X91.919 Y104.783 E0.01359
G1 X91.940 Y104.578 E0.00646
G1 X92.029 Y104.158 E0.01347
G1 X92.180 Y103.741 E0.01390
G1 X92.373 Y103.376 E0.01295
G1 X92.489 Y103.201 E0.00658
G1 X92.617 Y103.035 E0.00657
G1 X92.979 Y102.667 E0.01621
G1 X93.399 Y102.769 F10800.000
G1 F8640.000
G1 X93.426 Y102.343 E-0.12735
G1 X93.810 Y102.149 E-0.09930
G1 X94.005 Y102.075 E-0.04829
G1 X94.223 Y102.011 E-0.05235
G1 X94.628 Y101.933 E-0.09531
G1 X95.071 Y101.912 E-0.10239
G1 X95.483 Y101.948 E-0.09538
G1 X95.688 Y101.988 E-0.04833
G1 X95.907 Y102.047 E-0.05236
G1 X96.065 Y102.107 E-0.03893
G1 E-0.04000 F2100.00000
G1 Z0.600 F10800.000
G1 X97.368 Y103.961
G1 Z0.200
G1 E0.80000 F2100.00000
G1 F1200.000
G1 X96.520 Y103.113 E0.04000
G1 X96.162 Y102.867 E0.01446
G1 X96.028 Y102.799 E0.00502
G1 X95.708 Y102.677 E0.01144
G1 X95.458 Y102.619 E0.00853
G1 X97.383 Y104.544 E0.09077
G1 X97.416 Y104.748 E0.00692
G1 X97.421 Y105.148 E0.01334
G1 X94.855 Y102.583 E0.12099
G1 X94.706 Y102.590 E0.00498
G1 X94.364 Y102.658 E0.01165
G1 X97.341 Y105.635 E0.14039
G1 X97.318 Y105.729 E0.00320
G1 X97.181 Y106.043 E0.01143
G1 X93.954 Y102.816 E0.15220
G1 X93.762 Y102.912 E0.00713
G1 X93.597 Y103.026 E0.00671
G1 X96.976 Y106.405 E0.15935
G1 X96.922 Y106.485 E0.00320
G1 X96.710 Y106.707 E0.01024
G1 X93.289 Y103.285 E0.16135
G1 X93.122 Y103.461 E0.00808
G1 X93.028 Y103.592 E0.00537
G1 X96.408 Y106.972 E0.15940
G1 X96.056 Y107.187 E0.01376
G1 X92.817 Y103.948 E0.15276
G1 X92.661 Y104.359 E0.01466
G1 X95.641 Y107.338 E0.14053
G1 X95.377 Y107.399 E0.00903
G1 X95.153 Y107.418 E0.00749
G1 X92.590 Y104.855 E0.12089
G1 X92.580 Y105.177 E0.01075
G1 X92.630 Y105.463 E0.00969
G1 X94.547 Y107.379 E0.09039
G1 X94.376 Y107.346 E0.00581
G1 X93.902 Y107.165 E0.01692
G1 X93.517 Y106.916 E0.01530
G1 X92.609 Y106.008 E0.04282
; stop printing object Axle_5.stl id:4 copy 0
; printing object Axle_5.stl id:11 copy 0
G1 F8640.000
G1 X93.517 Y106.916 E-0.29650
G1 X93.902 Y107.165 E-0.10597
G1 X94.376 Y107.346 E-0.11716
G1 X94.547 Y107.379 E-0.04021
G1 X93.934 Y106.766 E-0.20016
G1 E-0.04000 F2100.00000
G1 Z0.600 F10800.000
G1 X97.796 Y110.421
G1 Z0.200
G1 E0.80000 F2100.00000
G1 F1200.000
G1 X97.904 Y110.281 E0.00555
G1 X98.174 Y109.995 E0.01232
G1 X98.618 Y109.668 E0.01730
G1 X99.126 Y109.433 E0.01755
G1 X99.312 Y109.377 E0.00608
G1 X99.673 Y109.309 E0.01152
G1 X100.064 Y109.290 E0.01227
G1 X100.603 Y109.355 E0.01704
G1 X100.790 Y109.406 E0.00608
G1 X101.143 Y109.540 E0.01183
G1 X101.626 Y109.828 E0.01763
G1 X102.038 Y110.209 E0.01760
G1 X102.357 Y110.658 E0.01726
G1 X102.580 Y111.161 E0.01726
G1 X102.674 Y111.543 E0.01232
G1 X102.711 Y112.093 E0.01730
G1 X102.671 Y112.476 E0.01206
G1 X102.635 Y112.649 E0.00555
G1 X102.586 Y112.820 E0.00555
G1 X102.440 Y113.186 E0.01237
G1 X102.144 Y113.662 E0.01758
G1 X101.764 Y114.060 E0.01726
G1 X101.455 Y114.289 E0.01205
G1 X101.303 Y114.380 E0.00555
G1 X101.145 Y114.459 E0.00555
G1 X100.785 Y114.596 E0.01205
G1 X100.421 Y114.679 E0.01173
G1 X100.038 Y114.712 E0.01205
G1 X99.861 Y114.709 E0.00555
G1 X99.684 Y114.694 E0.00555
G1 X99.298 Y114.619 E0.01232
G1 X98.774 Y114.418 E0.01761
G1 X98.302 Y114.114 E0.01760
G1 X97.911 Y113.727 E0.01726
G1 X97.600 Y113.262 E0.01754
G1 X97.517 Y113.087 E0.00608
G1 X97.392 Y112.740 E0.01155
G1 X97.313 Y112.363 E0.01206
G1 X97.296 Y111.803 E0.01758
G1 X97.392 Y111.262 E0.01723
G1 X97.526 Y110.894 E0.01226
G1 X97.762 Y110.471 E0.01521
G1 X97.448 Y110.262 F10800.000
G1 F1200.000
G1 X97.617 Y110.035 E0.00886
G1 X97.915 Y109.721 E0.01358
G1 X98.085 Y109.577 E0.00700
G1 X98.426 Y109.343 E0.01296
G1 X98.810 Y109.149 E0.01348
G1 X99.005 Y109.075 E0.00656
G1 X99.223 Y109.011 E0.00711
G1 X99.628 Y108.933 E0.01294
G1 X100.071 Y108.912 E0.01390
G1 X100.483 Y108.948 E0.01295
G1 X100.688 Y108.988 E0.00656
G1 X100.907 Y109.047 E0.00711
G1 X101.296 Y109.195 E0.01305
G1 X101.495 Y109.296 E0.00700
G1 X101.846 Y109.521 E0.01307
G1 X102.007 Y109.650 E0.00646
G1 X102.316 Y109.954 E0.01359
G1 X102.447 Y110.113 E0.00646
G1 X102.685 Y110.471 E0.01348
G1 X102.872 Y110.858 E0.01348
G1 X102.942 Y111.052 E0.00646
G1 X103.045 Y111.472 E0.01358
G1 X103.075 Y111.694 E0.00700
G1 X103.089 Y112.106 E0.01296
G1 X103.044 Y112.534 E0.01348
G1 X103.001 Y112.739 E0.00657
G1 X102.944 Y112.941 E0.00657
G1 X102.783 Y113.344 E0.01359
G1 X102.687 Y113.526 E0.00646
G1 X102.447 Y113.887 E0.01359
G1 X102.316 Y114.046 E0.00646
G1 X102.009 Y114.347 E0.01348
G1 X101.664 Y114.604 E0.01348
G1 X101.484 Y114.711 E0.00657
G1 X101.297 Y114.805 E0.00657
G1 X100.895 Y114.957 E0.01348
G1 X100.479 Y115.052 E0.01337
G1 X100.051 Y115.089 E0.01348
G1 X99.841 Y115.086 E0.00657
G1 X99.632 Y115.068 E0.00657
G1 X99.207 Y114.986 E0.01358
G1 X98.994 Y114.920 E0.00700
G1 X98.610 Y114.759 E0.01307
G1 X98.429 Y114.660 E0.00646
G1 X98.072 Y114.413 E0.01359
G1 X97.915 Y114.279 E0.00646
G1 X97.619 Y113.968 E0.01348
G1 X97.369 Y113.618 E0.01348
G1 X97.265 Y113.436 E0.00656
G1 X97.168 Y113.232 E0.00711
G1 X97.029 Y112.843 E0.01296
G1 X96.940 Y112.422 E0.01348
G1 X96.919 Y112.217 E0.00646
G1 X96.919 Y111.783 E0.01359
G1 X96.940 Y111.578 E0.00646
G1 X97.029 Y111.158 E0.01347
G1 X97.180 Y110.741 E0.01390
G1 X97.415 Y110.312 E0.01535
G1 X97.731 Y110.276 F10800.000
G1 F8640.000
G1 X97.617 Y110.035 E-0.07908
G1 X97.915 Y109.721 E-0.09999
G1 X98.085 Y109.577 E-0.05152
G1 X98.426 Y109.343 E-0.09541
G1 X98.810 Y109.149 E-0.09930
G1 X99.005 Y109.075 E-0.04829
G1 X99.223 Y109.011 E-0.05235
G1 X99.628 Y108.933 E-0.09531
G1 X100.071 Y108.912 E-0.10239
G1 X100.228 Y108.926 E-0.03635
G1 E-0.04000 F2100.00000
G1 Z0.600 F10800.000
G1 X102.368 Y110.961
G1 Z0.200
G1 E0.80000 F2100.00000
G1 F1200.000
G1 X101.520 Y110.113 E0.04000
G1 X101.162 Y109.867 E0.01446
G1 X101.028 Y109.799 E0.00502
G1 X100.708 Y109.677 E0.01144
G1 X100.458 Y109.619 E0.00853
G1 X102.383 Y111.544 E0.09077
G1 X102.416 Y111.748 E0.00692
G1 X102.421 Y112.148 E0.01334
G1 X99.855 Y109.583 E0.12099
G1 X99.706 Y109.590 E0.00498
G1 X99.364 Y109.658 E0.01165
G1 X102.341 Y112.635 E0.14039
G1 X102.318 Y112.729 E0.00320
G1 X102.181 Y113.043 E0.01143
G1 X98.954 Y109.816 E0.15220
G1 X98.762 Y109.912 E0.00713
G1 X98.597 Y110.026 E0.00671
G1 X101.976 Y113.405 E0.15935
G1 X101.922 Y113.485 E0.00320
G1 X101.710 Y113.707 E0.01024
G1 X98.289 Y110.285 E0.16135
G1 X98.122 Y110.461 E0.00808
G1 X98.028 Y110.592 E0.00537
G1 X101.408 Y113.972 E0.15940
G1 X101.056 Y114.187 E0.01376
G1 X97.817 Y110.948 E0.15276
G1 X97.661 Y111.359 E0.01466
G1 X100.641 Y114.338 E0.14053
G1 X100.377 Y114.399 E0.00903
G1 X100.153 Y114.418 E0.00749
G1 X97.590 Y111.855 E0.12089
G1 X97.580 Y112.177 E0.01075
G1 X97.630 Y112.463 E0.00969
G1 X99.547 Y114.379 E0.09039
G1 X99.376 Y114.346 E0.00581
G1 X98.902 Y114.165 E0.01692
G1 X98.517 Y113.916 E0.01530
G1 X97.609 Y113.008 E0.04282
; stop printing object Axle_5.stl id:11 copy 0
; printing object Axle_5.stl id:5 copy 0
G1 F8640.000
G1 X98.517 Y113.916 E-0.29650
G1 X98.902 Y114.165 E-0.10597
G1 X99.376 Y114.346 E-0.11716
G1 X99.547 Y114.379 E-0.04021
G1 X98.934 Y113.766 E-0.20016
G1 E-0.04000 F2100.00000
G1 Z0.600 F10800.000
G1 X103.175 Y107.006
G1 Z0.200
G1 E0.80000 F2100.00000
G1 F1200.000
G1 X102.911 Y106.727 E0.01205
G1 X102.600 Y106.262 E0.01754
G1 X102.517 Y106.087 E0.00608
G1 X102.392 Y105.740 E0.01155
G1 X102.296 Y105.197 E0.01728
G1 X102.296 Y104.803 E0.01237
G1 X102.392 Y104.262 E0.01723
G1 X102.526 Y103.894 E0.01226
G1 X102.697 Y103.569 E0.01154
G1 X102.904 Y103.281 E0.01111
G1 X103.174 Y102.995 E0.01232
G1 X103.618 Y102.668 E0.01730
G1 X104.126 Y102.433 E0.01755
G1 X104.312 Y102.377 E0.00608
G1 X104.673 Y102.309 E0.01152
G1 X105.064 Y102.290 E0.01227
G1 X105.430 Y102.322 E0.01154
G1 X105.790 Y102.406 E0.01159
G1 X106.143 Y102.540 E0.01183
G1 X106.307 Y102.624 E0.00577
G1 X106.756 Y102.933 E0.01710
G1 X107.038 Y103.209 E0.01237
G1 X107.357 Y103.658 E0.01726
G1 X107.580 Y104.161 E0.01726
G1 X107.674 Y104.543 E0.01232
G1 X107.699 Y104.725 E0.00576
G1 X107.711 Y105.093 E0.01155
G1 X107.671 Y105.476 E0.01206
G1 X107.586 Y105.820 E0.01110
G1 X107.363 Y106.334 E0.01758
G1 X107.038 Y106.791 E0.01758
G1 X106.764 Y107.060 E0.01205
G1 X106.455 Y107.289 E0.01205
G1 X106.145 Y107.459 E0.01110
G1 X105.785 Y107.596 E0.01205
G1 X105.421 Y107.679 E0.01173
G1 X105.038 Y107.712 E0.01205
G1 X104.684 Y107.694 E0.01110
G1 X104.298 Y107.619 E0.01232
G1 X104.123 Y107.565 E0.00576
G1 X103.627 Y107.338 E0.01710
G1 X103.221 Y107.045 E0.01571
G1 X102.976 Y107.331 F10800.000
G1 F1200.000
G1 X102.619 Y106.968 E0.01596
G1 X102.369 Y106.618 E0.01348
G1 X102.265 Y106.436 E0.00656
G1 X102.168 Y106.232 E0.00711
G1 X102.029 Y105.843 E0.01296
G1 X101.940 Y105.422 E0.01348
G1 X101.919 Y105.217 E0.00646
G1 X101.919 Y104.783 E0.01359
G1 X101.940 Y104.578 E0.00646
G1 X102.029 Y104.158 E0.01347
G1 X102.180 Y103.741 E0.01390
G1 X102.373 Y103.376 E0.01295
G1 X102.617 Y103.035 E0.01314
G1 X102.915 Y102.721 E0.01358
G1 X103.085 Y102.577 E0.00700
G1 X103.426 Y102.343 E0.01296
G1 X103.810 Y102.149 E0.01348
G1 X104.005 Y102.075 E0.00656
G1 X104.223 Y102.011 E0.00711
G1 X104.628 Y101.933 E0.01294
G1 X105.071 Y101.912 E0.01390
G1 X105.483 Y101.948 E0.01295
G1 X105.907 Y102.047 E0.01366
G1 X106.296 Y102.195 E0.01305
G1 X106.495 Y102.296 E0.00700
G1 X106.846 Y102.521 E0.01307
G1 X107.007 Y102.650 E0.00646
G1 X107.316 Y102.954 E0.01359
G1 X107.447 Y103.113 E0.00646
G1 X107.685 Y103.471 E0.01348
G1 X107.872 Y103.858 E0.01348
G1 X107.942 Y104.052 E0.00646
G1 X108.045 Y104.472 E0.01358
G1 X108.075 Y104.694 E0.00700
G1 X108.089 Y105.106 E0.01296
G1 X108.044 Y105.534 E0.01348
G1 X107.944 Y105.941 E0.01314
G1 X107.783 Y106.344 E0.01359
G1 X107.687 Y106.526 E0.00646
G1 X107.447 Y106.887 E0.01359
G1 X107.316 Y107.046 E0.00646
G1 X107.009 Y107.347 E0.01348
G1 X106.664 Y107.604 E0.01348
G1 X106.297 Y107.805 E0.01314
G1 X105.895 Y107.957 E0.01348
G1 X105.479 Y108.052 E0.01337
G1 X105.051 Y108.089 E0.01348
G1 X104.632 Y108.068 E0.01314
G1 X104.207 Y107.986 E0.01358
G1 X103.994 Y107.920 E0.00700
G1 X103.610 Y107.759 E0.01307
G1 X103.429 Y107.660 E0.00646
G1 X103.021 Y107.370 E0.01567
G1 X103.057 Y106.939 F10800.000
G1 F8640.000
G1 X102.619 Y106.968 E-0.13136
G1 X102.369 Y106.618 E-0.09927
G1 X102.265 Y106.436 E-0.04829
G1 X102.168 Y106.232 E-0.05235
G1 X102.029 Y105.843 E-0.09541
G1 X101.940 Y105.422 E-0.09930
G1 X101.919 Y105.217 E-0.04757
G1 X101.919 Y104.783 E-0.10011
G1 X101.940 Y104.578 E-0.04757
G1 X101.975 Y104.414 E-0.03876
