; generated by PrusaSlicer 2.2.0+win64 on 2022-03-09 at 12:58:09 UTC

; 

; external perimeters extrusion width = 0.45mm
; perimeters extrusion width = 0.45mm
; infill extrusion width = 0.45mm
; solid infill extrusion width = 0.45mm
; top infill extrusion width = 0.40mm
; first layer extrusion width = 0.42mm

M73 P0 R19
M73 Q0 S19
M201 X1000 Y1000 Z200 E5000 ; sets maximum accelerations, mm/sec^2
M203 X200 Y200 Z12 E120 ; sets maximum feedrates, mm/sec
M204 P1250 R1250 T1250 ; sets acceleration (P, T) and retract acceleration (R), mm/sec^2
M205 X8.00 Y8.00 Z0.40 E4.50 ; sets the jerk limits, mm/sec
M205 S0 T0 ; sets the minimum extruding and travel feed rate, mm/sec
M107
M862.3 P "MK3S" ; printer model check
M862.1 P0.4 ; nozzle diameter check
M115 U3.10.1 ; tell printer latest fw version
G90 ; use absolute coordinates
M83 ; extruder relative mode
M104 S215 ; set extruder temp
M140 S60 ; set bed temp
M190 S60 ; wait for bed temp
M109 S215 ; wait for extruder temp
G28 W ; home all without mesh bed level
G80 ; mesh bed leveling
G1 Y-3.0 F1000.0 ; go outside print area
G92 E0.0
G1 X60.0 E9.0 F1000.0 ; intro line
M73 Q0 S19
M73 P0 R19
G1 X100.0 E12.5 F1000.0 ; intro line
G92 E0.0
M221 S95

; Don't change E values below. Excessive value can damage the printer.
M907 E430 ; set extruder motor current
G21 ; set units to millimeters
G90 ; use absolute coordinates
M83 ; use relative distances for extrusion
M900 K0.05 ; Filament gcode LA 1.5
M900 K30 ; Filament gcode LA 1.0
;BEFORE_LAYER_CHANGE
G92 E0.0
;0.2


G1 E-0.80000 F2100.00000
G1 Z0.400 F10800.000
;AFTER_LAYER_CHANGE
;0.2
G1 X88.020 Y95.370
G1 Z0.200
G1 E0.80000 F2100.00000
M204 S1000
G1 F1200.000
G1 X89.036 Y94.118 E0.05056
G1 X89.777 Y93.451 E0.03127
G1 X90.593 Y92.877 E0.03127
G1 X92.089 Y92.145 E0.05222
G1 X93.607 Y91.740 E0.04925
G1 X94.800 Y91.626 E0.03759
G1 X140.173 Y91.626 E1.42265
G1 X141.494 Y91.764 E0.04164
G1 X142.938 Y92.164 E0.04698
G1 X144.336 Y92.846 E0.04878
G1 X145.654 Y93.840 E0.05175
G1 X146.695 Y94.996 E0.04878
G1 X147.526 Y96.369 E0.05032
G1 X148.079 Y97.871 E0.05020
G1 X148.336 Y99.444 E0.04997
G1 X148.287 Y101.060 E0.05068
G1 X147.948 Y102.574 E0.04866
G1 X147.491 Y103.703 E0.03818
G1 X146.651 Y105.062 E0.05008
G1 X145.604 Y106.206 E0.04866
G1 X144.320 Y107.164 E0.05020
G1 X142.878 Y107.859 E0.05020
G1 X141.371 Y108.260 E0.04890
G1 X140.173 Y108.374 E0.03771
G1 X94.135 Y108.332 E1.44350
G1 X92.679 Y108.048 E0.04651
G1 X91.599 Y107.655 E0.03604
G1 X90.267 Y106.911 E0.04782
G1 X89.360 Y106.194 E0.03628
G1 X88.333 Y105.071 E0.04771
G1 X87.699 Y104.107 E0.03616
G1 X87.074 Y102.708 E0.04806
G1 X86.774 Y101.583 E0.03652
G1 X86.623 Y99.996 E0.04997
G1 X86.780 Y98.387 E0.05068
G1 X87.239 Y96.846 E0.05044
G1 X87.992 Y95.423 E0.05046
; printing object Axle_8.stl id:1 copy 0
G1 F8640.000
G1 X89.036 Y94.118 E-0.38591
G1 X89.777 Y93.451 E-0.23029
G1 X90.286 Y93.092 E-0.14380
G1 E-0.04000 F2100.00000
G1 Z0.600 F10800.000
G1 X134.775 Y99.666
G1 Z0.200
G1 E0.80000 F2100.00000
G1 F1200.000
G1 X134.807 Y99.343 E0.01018
G1 X134.938 Y98.670 E0.02151
G1 X135.032 Y98.353 E0.01035
G1 X135.285 Y97.731 E0.02106
G1 X135.438 Y97.438 E0.01035
G1 X135.805 Y96.876 E0.02106
G1 X136.012 Y96.618 E0.01035
G1 X136.479 Y96.136 E0.02106
G1 X136.731 Y95.922 E0.01035
G1 X137.283 Y95.538 E0.02109
G1 X137.558 Y95.383 E0.00989
G1 X138.177 Y95.109 E0.02123
G1 X138.827 Y94.916 E0.02123
G1 X139.136 Y94.856 E0.00989
G1 X139.819 Y94.790 E0.02151
G1 X140.149 Y94.791 E0.01035
G1 X140.809 Y94.855 E0.02079
G1 X141.469 Y95.006 E0.02124
G1 X141.769 Y95.105 E0.00989
G1 X142.396 Y95.383 E0.02153
G1 X142.671 Y95.538 E0.00989
G1 X143.234 Y95.931 E0.02153
G1 X143.474 Y96.135 E0.00989
G1 X143.952 Y96.628 E0.02153
G1 X144.149 Y96.875 E0.00989
G1 X144.518 Y97.443 E0.02123
G1 X144.812 Y98.053 E0.02123
G1 X144.924 Y98.357 E0.01018
G1 X145.017 Y98.669 E0.01018
G1 X145.148 Y99.343 E0.02153
G1 X145.178 Y99.657 E0.00989
G1 X145.178 Y100.334 E0.02123
G1 X145.092 Y101.006 E0.02123
G1 X145.019 Y101.322 E0.01018
G1 X144.927 Y101.633 E0.01018
G1 X144.669 Y102.270 E0.02153
G1 X144.523 Y102.550 E0.00989
G1 X144.149 Y103.125 E0.02153
G1 X143.952 Y103.372 E0.00989
G1 X143.481 Y103.858 E0.02123
G1 X142.952 Y104.280 E0.02123
G1 X142.679 Y104.457 E0.01018
G1 X142.396 Y104.617 E0.01018
G1 X141.777 Y104.891 E0.02123
G1 X141.128 Y105.084 E0.02123
G1 X140.818 Y105.144 E0.00989
G1 X140.135 Y105.210 E0.02153
G1 X139.811 Y105.210 E0.01016
G1 X139.472 Y105.187 E0.01064
G1 X138.818 Y105.081 E0.02079
G1 X138.168 Y104.888 E0.02124
G1 X137.867 Y104.766 E0.01018
G1 X137.575 Y104.626 E0.01018
G1 X136.988 Y104.270 E0.02153
G1 X136.735 Y104.081 E0.00989
G1 X136.234 Y103.626 E0.02124
G1 X135.801 Y103.117 E0.02094
G1 X135.431 Y102.550 E0.02123
G1 X135.285 Y102.270 E0.00989
G1 X135.028 Y101.634 E0.02151
G1 X134.935 Y101.318 E0.01035
G1 X134.808 Y100.667 E0.02079
G1 X134.765 Y99.991 E0.02124
G1 X134.774 Y99.726 E0.00830
G1 X134.397 Y99.714 F10800.000
G1 F1200.000
G1 X134.433 Y99.289 E0.01339
G1 X134.571 Y98.579 E0.02266
G1 X134.676 Y98.228 E0.01149
G1 X134.942 Y97.572 E0.02220
G1 X135.113 Y97.247 E0.01149
G1 X135.499 Y96.654 E0.02220
G1 X135.729 Y96.368 E0.01149
G1 X136.222 Y95.860 E0.02220
G1 X136.501 Y95.623 E0.01149
G1 X137.082 Y95.218 E0.02221
G1 X137.389 Y95.046 E0.01103
G1 X138.047 Y94.754 E0.02256
G1 X138.737 Y94.550 E0.02256
G1 X139.082 Y94.483 E0.01102
G1 X139.801 Y94.413 E0.02266
G1 X140.168 Y94.414 E0.01149
G1 X140.869 Y94.482 E0.02210
G1 X141.571 Y94.642 E0.02257
G1 X141.905 Y94.753 E0.01102
G1 X142.566 Y95.046 E0.02267
G1 X142.872 Y95.218 E0.01102
G1 X143.465 Y95.632 E0.02267
G1 X143.733 Y95.860 E0.01102
G1 X144.236 Y96.379 E0.02267
G1 X144.455 Y96.654 E0.01102
G1 X144.847 Y97.257 E0.02256
G1 X145.160 Y97.906 E0.02256
G1 X145.282 Y98.239 E0.01113
G1 X145.383 Y98.579 E0.01113
G1 X145.521 Y99.289 E0.02267
G1 X145.555 Y99.639 E0.01102
G1 X145.555 Y100.358 E0.02256
G1 X145.463 Y101.072 E0.02256
G1 X145.384 Y101.418 E0.01113
G1 X145.283 Y101.758 E0.01113
G1 X145.012 Y102.428 E0.02267
G1 X144.849 Y102.740 E0.01102
G1 X144.455 Y103.346 E0.02267
G1 X144.236 Y103.621 E0.01102
G1 X143.735 Y104.138 E0.02256
G1 X143.172 Y104.586 E0.02256
G1 X142.875 Y104.780 E0.01113
G1 X142.566 Y104.954 E0.01113
G1 X141.908 Y105.246 E0.02256
G1 X141.218 Y105.450 E0.02256
G1 X140.873 Y105.517 E0.01102
G1 X140.153 Y105.587 E0.02267
G1 X139.798 Y105.587 E0.01112
G1 X139.429 Y105.562 E0.01160
G1 X138.734 Y105.449 E0.02210
G1 X138.044 Y105.245 E0.02257
G1 X137.715 Y105.111 E0.01113
G1 X137.395 Y104.957 E0.01113
G1 X136.777 Y104.583 E0.02267
G1 X136.495 Y104.372 E0.01102
G1 X135.962 Y103.888 E0.02256
G1 X135.498 Y103.343 E0.02246
G1 X135.105 Y102.740 E0.02256
G1 X134.943 Y102.428 E0.01102
G1 X134.671 Y101.758 E0.02266
G1 X134.568 Y101.407 E0.01149
G1 X134.434 Y100.715 E0.02210
G1 X134.388 Y99.997 E0.02257
G1 X134.395 Y99.774 E0.00699
G1 X134.752 Y99.530 F10800.000
G1 F8640.000
G1 X134.433 Y99.289 E-0.11242
G1 X134.571 Y98.579 E-0.16688
G1 X134.676 Y98.228 E-0.08461
G1 X134.942 Y97.572 E-0.16349
G1 X135.113 Y97.247 E-0.08463
G1 X135.463 Y96.711 E-0.14798
G1 E-0.04000 F2100.00000
G1 Z0.600 F10800.000
G1 X144.388 Y97.450
G1 Z0.200
G1 E0.80000 F2100.00000
G1 F1200.000
G1 X143.273 Y96.335 E0.04967
G1 X143.061 Y96.155 E0.00876
G1 X142.521 Y95.778 E0.02077
G1 X142.270 Y95.636 E0.00907
G1 X141.855 Y95.453 E0.01428
G1 X144.538 Y98.136 E0.11953
G1 X144.656 Y98.447 E0.01046
G1 X144.775 Y98.909 E0.01503
G1 X141.072 Y95.205 E0.16497
G1 X140.764 Y95.135 E0.00996
G1 X140.434 Y95.103 E0.01044
G1 X144.884 Y99.553 E0.19825
G1 X144.895 Y100.100 E0.01723
G1 X139.868 Y95.073 E0.22393
G1 X139.376 Y95.117 E0.01555
G1 X144.859 Y100.599 E0.24421
G1 X144.788 Y101.064 E0.01481
G1 X138.912 Y95.188 E0.26177
G1 X138.497 Y95.309 E0.01360
G1 X144.675 Y101.487 E0.27521
G1 X144.525 Y101.873 E0.01303
G1 X138.103 Y95.451 E0.28605
G1 X137.732 Y95.615 E0.01279
G1 X144.363 Y102.246 E0.29537
G1 X144.164 Y102.583 E0.01232
G1 X137.389 Y95.809 E0.30178
G1 X137.074 Y96.029 E0.01212
G1 X143.953 Y102.908 E0.30643
G1 X143.717 Y103.208 E0.01202
G1 X136.770 Y96.260 E0.30947
G1 X136.497 Y96.524 E0.01193
G1 X143.454 Y103.480 E0.30987
G1 X143.177 Y103.739 E0.01194
G1 X136.234 Y96.796 E0.30929
G1 X135.999 Y97.097 E0.01202
G1 X142.879 Y103.977 E0.30647
G1 X142.563 Y104.196 E0.01213
G1 X135.787 Y97.421 E0.30180
G1 X135.590 Y97.759 E0.01233
G1 X142.217 Y104.387 E0.29524
G1 X141.846 Y104.551 E0.01279
G1 X135.427 Y98.132 E0.28593
G1 X135.278 Y98.519 E0.01305
G1 X141.452 Y104.693 E0.27501
G1 X141.037 Y104.813 E0.01361
G1 X135.172 Y98.948 E0.26127
G1 X135.085 Y99.398 E0.01442
G1 X140.571 Y104.884 E0.24438
G1 X140.079 Y104.927 E0.01557
G1 X135.051 Y99.899 E0.22398
G1 X135.079 Y100.462 E0.01777
G1 X139.524 Y104.907 E0.19800
G1 X138.886 Y104.806 E0.02033
G1 X135.181 Y101.100 E0.16507
G1 X135.295 Y101.541 E0.01435
G1 X135.438 Y101.893 E0.01195
G1 X138.101 Y104.556 E0.11863
G1 X137.710 Y104.377 E0.01355
G1 X137.146 Y104.035 E0.02077
G1 X136.915 Y103.862 E0.00907
G1 X136.444 Y103.435 E0.02002
G1 X135.580 Y102.571 E0.03851
; stop printing object Axle_8.stl id:1 copy 0
; printing object Axle_8.stl id:0 copy 0
G1 F8640.000
G1 X136.444 Y103.435 E-0.28232
G1 X136.915 Y103.862 E-0.14678
G1 X137.146 Y104.035 E-0.06652
G1 X137.710 Y104.377 E-0.15228
G1 X138.101 Y104.556 E-0.09933
G1 X138.062 Y104.517 E-0.01278
G1 E-0.04000 F2100.00000
G1 Z0.600 F10800.000
G1 X130.024 Y101.302
G1 Z0.200
G1 E0.80000 F2100.00000
G1 F1200.000
G1 X129.927 Y101.633 E0.01082
G1 X129.669 Y102.270 E0.02153
G1 X129.523 Y102.550 E0.00989
G1 X129.149 Y103.125 E0.02153
G1 X128.952 Y103.372 E0.00989
G1 X128.481 Y103.858 E0.02123
G1 X127.952 Y104.280 E0.02123
G1 X127.679 Y104.457 E0.01018
G1 X127.396 Y104.617 E0.01018
G1 X126.777 Y104.891 E0.02123
G1 X126.128 Y105.084 E0.02123
G1 X125.818 Y105.144 E0.00989
G1 X125.135 Y105.210 E0.02153
G1 X124.811 Y105.210 E0.01016
G1 X124.472 Y105.187 E0.01064
G1 X123.818 Y105.081 E0.02079
G1 X123.168 Y104.888 E0.02124
G1 X122.867 Y104.766 E0.01018
G1 X122.575 Y104.626 E0.01018
G1 X121.988 Y104.270 E0.02153
G1 X121.735 Y104.081 E0.00989
G1 X121.234 Y103.626 E0.02124
G1 X120.801 Y103.117 E0.02094
G1 X120.431 Y102.550 E0.02123
G1 X120.285 Y102.270 E0.00989
G1 X120.028 Y101.634 E0.02151
G1 X119.935 Y101.318 E0.01035
G1 X119.808 Y100.667 E0.02079
G1 X119.765 Y99.991 E0.02124
G1 X119.775 Y99.666 E0.01018
G1 X119.807 Y99.343 E0.01018
G1 X119.938 Y98.670 E0.02151
G1 X120.032 Y98.353 E0.01035
G1 X120.285 Y97.731 E0.02106
G1 X120.438 Y97.438 E0.01035
G1 X120.805 Y96.876 E0.02106
G1 X121.012 Y96.618 E0.01035
G1 X121.479 Y96.136 E0.02106
G1 X121.731 Y95.922 E0.01035
G1 X122.283 Y95.538 E0.02109
G1 X122.558 Y95.383 E0.00989
G1 X123.177 Y95.109 E0.02123
G1 X123.827 Y94.916 E0.02123
G1 X124.136 Y94.856 E0.00989
G1 X124.819 Y94.790 E0.02151
G1 X125.149 Y94.791 E0.01035
G1 X125.809 Y94.855 E0.02079
G1 X126.469 Y95.006 E0.02124
G1 X126.769 Y95.105 E0.00989
G1 X127.396 Y95.383 E0.02153
G1 X127.671 Y95.538 E0.00989
G1 X128.234 Y95.931 E0.02153
G1 X128.474 Y96.135 E0.00989
G1 X128.952 Y96.628 E0.02153
G1 X129.149 Y96.875 E0.00989
G1 X129.518 Y97.443 E0.02123
G1 X129.812 Y98.053 E0.02123
G1 X129.924 Y98.357 E0.01018
G1 X130.017 Y98.669 E0.01018
G1 X130.148 Y99.343 E0.02153
G1 X130.178 Y99.657 E0.00989
G1 X130.178 Y100.334 E0.02123
G1 X130.092 Y101.006 E0.02123
G1 X130.037 Y101.244 E0.00766
G1 F8640.000
G1 X129.927 Y101.633 E-0.09348
G1 X129.669 Y102.270 E-0.15856
G1 X129.523 Y102.550 E-0.07280
G1 X129.149 Y103.125 E-0.15856
G1 X128.952 Y103.372 E-0.07280
G1 X128.481 Y103.858 E-0.15638
G1 X128.320 Y103.986 E-0.04742
G1 E-0.04000 F2100.00000
G1 Z0.600 F10800.000
G1 X130.555 Y100.358
G1 Z0.200
G1 E0.80000 F2100.00000
G1 F1200.000
G1 X130.463 Y101.072 E0.02256
G1 X130.384 Y101.418 E0.01113
G1 X130.283 Y101.758 E0.01113
G1 X130.012 Y102.428 E0.02267
G1 X129.849 Y102.740 E0.01102
G1 X129.455 Y103.346 E0.02267
G1 X129.236 Y103.621 E0.01102
G1 X128.735 Y104.138 E0.02256
G1 X128.172 Y104.586 E0.02256
G1 X127.875 Y104.780 E0.01113
G1 X127.566 Y104.954 E0.01113
G1 X126.908 Y105.246 E0.02256
G1 X126.218 Y105.450 E0.02256
G1 X125.873 Y105.517 E0.01102
G1 X125.153 Y105.587 E0.02267
G1 X124.798 Y105.587 E0.01112
G1 X124.429 Y105.562 E0.01160
G1 X123.734 Y105.449 E0.02210
G1 X123.044 Y105.245 E0.02257
G1 X122.715 Y105.111 E0.01113
G1 X122.395 Y104.957 E0.01113
G1 X121.777 Y104.583 E0.02267
G1 X121.495 Y104.372 E0.01102
G1 X120.962 Y103.888 E0.02256
G1 X120.498 Y103.343 E0.02246
G1 X120.105 Y102.740 E0.02256
G1 X119.943 Y102.428 E0.01102
G1 X119.671 Y101.758 E0.02266
G1 X119.568 Y101.407 E0.01149
G1 X119.434 Y100.715 E0.02210
G1 X119.388 Y99.997 E0.02257
G1 X119.399 Y99.642 E0.01113
G1 X119.433 Y99.289 E0.01113
G1 X119.571 Y98.579 E0.02266
G1 X119.676 Y98.228 E0.01149
G1 X119.942 Y97.572 E0.02220
G1 X120.113 Y97.247 E0.01149
G1 X120.499 Y96.654 E0.02220
G1 X120.729 Y96.368 E0.01149
G1 X121.222 Y95.860 E0.02220
G1 X121.501 Y95.623 E0.01149
G1 X122.082 Y95.218 E0.02221
G1 X122.389 Y95.046 E0.01103
G1 X123.047 Y94.754 E0.02256
G1 X123.737 Y94.550 E0.02256
G1 X124.082 Y94.483 E0.01102
G1 X124.801 Y94.413 E0.02266
G1 X125.168 Y94.414 E0.01149
G1 X125.869 Y94.482 E0.02210
G1 X126.571 Y94.642 E0.02257
G1 X126.905 Y94.753 E0.01102
G1 X127.566 Y95.046 E0.02267
G1 X127.872 Y95.218 E0.01102
G1 X128.465 Y95.632 E0.02267
G1 X128.733 Y95.860 E0.01102
G1 X129.236 Y96.379 E0.02267
G1 X129.455 Y96.654 E0.01102
G1 X129.847 Y97.257 E0.02256
G1 X130.160 Y97.906 E0.02256
G1 X130.282 Y98.239 E0.01113
G1 X130.383 Y98.579 E0.01113
G1 X130.521 Y99.289 E0.02267
G1 X130.555 Y99.639 E0.01102
G1 X130.555 Y100.298 E0.02068
G1 X130.195 Y100.532 F10800.000
G1 F8640.000
G1 X130.463 Y101.072 E-0.17991
G1 X130.384 Y101.418 E-0.08196
G1 X130.283 Y101.758 E-0.08196
G1 X130.012 Y102.428 E-0.16694
G1 X129.849 Y102.740 E-0.08118
G1 X129.455 Y103.346 E-0.16694
G1 X129.452 Y103.350 E-0.00111
G1 E-0.04000 F2100.00000
G1 Z0.600 F10800.000
G1 X120.580 Y102.571
G1 Z0.200
G1 E0.80000 F2100.00000
G1 F1200.000
G1 X121.444 Y103.435 E0.03851
G1 X121.915 Y103.862 E0.02002
G1 X122.146 Y104.035 E0.00907
G1 X122.710 Y104.377 E0.02077
G1 X123.101 Y104.556 E0.01355
G1 X120.438 Y101.893 E0.11863
G1 X120.295 Y101.541 E0.01195
G1 X120.181 Y101.100 E0.01435
G1 X123.886 Y104.806 E0.16507
G1 X124.524 Y104.907 E0.02033
G1 X120.079 Y100.462 E0.19800
G1 X120.051 Y99.899 E0.01777
G1 X125.079 Y104.927 E0.22398
G1 X125.571 Y104.884 E0.01557
G1 X120.085 Y99.398 E0.24438
G1 X120.172 Y98.948 E0.01442
G1 X126.037 Y104.813 E0.26127
G1 X126.452 Y104.693 E0.01361
G1 X120.278 Y98.519 E0.27501
G1 X120.427 Y98.132 E0.01305
G1 X126.846 Y104.551 E0.28593
G1 X127.217 Y104.387 E0.01279
G1 X120.590 Y97.759 E0.29524
G1 X120.787 Y97.421 E0.01233
G1 X127.563 Y104.196 E0.30180
G1 X127.879 Y103.977 E0.01213
G1 X120.999 Y97.097 E0.30647
G1 X121.234 Y96.796 E0.01202
G1 X128.177 Y103.739 E0.30929
G1 X128.454 Y103.480 E0.01194
G1 X121.497 Y96.524 E0.30987
G1 X121.770 Y96.260 E0.01193
G1 X128.717 Y103.208 E0.30947
G1 X128.953 Y102.908 E0.01202
G1 X122.074 Y96.029 E0.30643
G1 X122.389 Y95.809 E0.01212
G1 X129.164 Y102.583 E0.30178
G1 X129.363 Y102.246 E0.01232
G1 X122.732 Y95.615 E0.29537
G1 X123.103 Y95.451 E0.01279
G1 X129.525 Y101.873 E0.28605
G1 X129.675 Y101.487 E0.01303
G1 X123.497 Y95.309 E0.27521
G1 X123.912 Y95.188 E0.01360
G1 X129.788 Y101.064 E0.26177
G1 X129.859 Y100.599 E0.01481
G1 X124.376 Y95.117 E0.24421
G1 X124.868 Y95.073 E0.01555
G1 X129.895 Y100.100 E0.22393
G1 X129.884 Y99.553 E0.01723
G1 X125.434 Y95.103 E0.19825
G1 X125.764 Y95.135 E0.01044
G1 X126.072 Y95.205 E0.00996
G1 X129.775 Y98.909 E0.16497
G1 X129.656 Y98.447 E0.01503
G1 X129.538 Y98.136 E0.01046
G1 X126.855 Y95.453 E0.11953
G1 X127.270 Y95.636 E0.01428
G1 X127.521 Y95.778 E0.00907
G1 X128.061 Y96.155 E0.02077
G1 X128.273 Y96.335 E0.00876
G1 X129.388 Y97.450 E0.04967
; stop printing object Axle_8.stl id:0 copy 0
; printing object Axle_8.stl id:2 copy 0
G1 F8640.000
G1 X128.273 Y96.335 E-0.36415
G1 X128.061 Y96.155 E-0.06422
G1 X127.521 Y95.778 E-0.15228
G1 X127.270 Y95.636 E-0.06652
G1 X126.855 Y95.453 E-0.10466
G1 X126.880 Y95.478 E-0.00818
